X:1
T:Lamkin
M:3/4
L:1/8
K:F
 F| G2 G2 AG| GF F2 G3/2- A/2| B/2 B3/2 A2 G2| A4 c2| d2 d2 fd|d-c A2F-A|\
 G/2 F3/2 D3 D| D4||
